X:1
T:Title
%%score 1 2 3 4
L:1/8
M:2/2
K:C
V:1 treble nm="Choir Aahs"
V:2 bass nm="Choir Aahs"
V:3 treble nm="Choir Aahs"
V:4 bass nm="Choir Aahs"
V:1
 z2 c2 | c2 B2 c2 d2 | e2 dc d3 d | c2 B2 A2 dc |[M:3/2] B8 B4 | c8 G4 | d4 A2 B2 c2 d2 | e8 d4 | %8
 B8 c4 | c6 B2 A4 | G4 c4 B4 | c12 |[M:1/2] z2 c2 |[M:2/2] c2 B2 c2 d2 | e2 dc d3 d | c2 B2 A2 dc | %16
[M:3/2] B8 B4 | c8 G4 | d4 A2 B2 c2 d2 | e8 d4 | B8 c4 | c6 B2 A4 | G4 c4 B4 | c12 |] %24
V:2
 z4 | z8 | z8 | z8 |[M:3/2] z4 z4 E,4 | G,8 G,2 A,2 | G,4 A,4 G,4 | G,8 G,4 | G,8 E,4 | F,8 A,4 | %10
 G,4 G,8 | G,12 |[M:1/2] z4 |[M:2/2] z8 | z8 | z8 |[M:3/2] z4 z4 E,4 | G,8 G,2 A,2 | G,4 A,4 G,4 | %19
 G,8 G,4 | G,8 E,4 | F,8 A,4 | G,4 G,8 | G,12 |] %24
V:3
 z4 | z8 | z8 | z8 |[M:3/2] z4 z4 E4 | E8 D2 C2 | B,4[K:bass] A,4 G,4 | C8 B,4 | D8[K:treble] C4 | %9
 F8 F4 | E4 E4 D4 | C12 |[M:1/2] z4 |[M:2/2] z8 | z8 | z8 |[M:3/2] z4 z4 E4 | E8 D2 C2 | %18
 B,4[K:bass] A,4 G,4 | C8 B,4 | D8[K:treble] C4 | F8 F4 | E4 E4 D4 | C12 |] %24
V:4
 z2 C,2 | C2 G,2 E,2 G,2 | C2 B,A, G,3 G, | A,2 G,2 F,E, D,2 |[M:3/2] G,8 G,4 | C8 B,2 A,2 | %6
 G,4 F,4 E,2 D,2 | C,8 E,4 | G,8 A,2 G,2 | F,6 G,2 A,2 B,2 | C4 G,8 | C,12 |[M:1/2] z2 C,2 | %13
[M:2/2] C2 G,2 E,2 G,2 | C2 B,A, G,3 G, | A,2 G,2 F,E, D,2 |[M:3/2] G,8 G,4 | C8 B,2 A,2 | %18
 G,4 F,4 E,2 D,2 | C,8 E,4 | G,8 A,2 G,2 | F,6 G,2 A,2 B,2 | C4 G,8 | C,12 |] %24

